icons/svg/google-maps.svg

﻿<?xml version="1.0" encoding="utf-8"?>
<!DOCTYPE svg PUBLIC "-//W3C//DTD SVG 1.1//EN" "http://www.w3.org/Graphics/SVG/1.1/DTD/svg11.dtd">
<svg xmlns="http://www.w3.org/2000/svg" xmlns:xlink="http://www.w3.org/1999/xlink" version="1.1" baseProfile="full" width="24" height="24" viewBox="0 0 24.00 24.00" enable-background="new 0 0 24.00 24.00" xml:space="preserve">
	<path fill="#000000" fill-opacity="1" stroke-width="1.33333" stroke-linejoin="miter" d="M 5,4C 3.8955,4 3,4.8955 3,6L 3,16.293L 11.184,8.109C 11.0555,7.5895 10.985,7.065 10.985,6.531C 10.985,5.62 11.204,4.7595 11.5915,4L 5,4 Z M 18,21C 19.1045,21 20,20.1045 20,19L 20,11.8625C 19.242,13.002 18.3085,14.213 17.288,15.5195L 16.5045,16.5245L 15.715,15.524C 14.39,13.845 13.221,12.3235 12.389,10.909C 12.0515,10.334 11.759,9.7585 11.5295,9.178L 7.457,13.25L 15.207,21L 18,21 Z M 3,19C 3,20.1045 3.8955,21 5,21L 13.793,21L 6.75,13.957L 3,17.707L 3,19 Z M 16.5,15C 19.1055,11.6295 21,9.1005 21,6.574C 21,4.048 18.9855,2 16.5,2C 14.0145,2 12,4.048 12,6.574C 12,9.1005 13.865,11.6295 16.5,15 Z M 18.5,6.5C 18.5,7.6045 17.6045,8.5 16.5,8.5C 15.3955,8.5 14.5,7.6045 14.5,6.5C 14.5,5.3955 15.3955,4.5 16.5,4.5C 17.6045,4.5 18.5,5.3955 18.5,6.5 Z "/>
</svg>

<svg xmlns="http://www.w3.org/2000/svg" version="1.1" baseProfile="full" width="24" height="24" viewBox="0 0 24.00 24.00" xml:space="preserve"><path fill="#000" fill-opacity="1" stroke-width="1.333" stroke-linejoin="miter" d="M5 4c-1.104 0-2 .896-2 2v10.293l8.184-8.184c-.128-.52-.2-1.045-.2-1.58 0-.91.22-1.77.607-2.53h-6.59zm13 17c1.105 0 2-.895 2-2v-7.137c-.758 1.14-1.692 2.35-2.712 3.657l-.784 1.005-.79-1c-1.324-1.68-2.493-3.202-3.325-4.616-.338-.576-.63-1.152-.86-1.732L7.457 13.25l7.75 7.75H18zM3 19c0 1.105.896 2 2 2h8.793L6.75 13.957 3 17.707V19zm13.5-4c2.605-3.37 4.5-5.9 4.5-8.426S18.985 2 16.5 2C14.014 2 12 4.048 12 6.574 12 9.1 13.865 11.63 16.5 15zm2-8.5c0 1.104-.895 2-2 2-1.104 0-2-.896-2-2s.896-2 2-2c1.105 0 2 .896 2 2z"/></svg>
